src/assets/footer_icon.svg

<svg width="116" height="115" viewBox="0 0 116 115" fill="none" xmlns="http://www.w3.org/2000/svg">
<path d="M42.965 115C42.3549 115 41.887 114.459 41.9755 113.855L47.4206 76.7172C47.5517 75.8232 46.5238 75.2276 45.8133 75.7859L16.2233 99.0382C15.7461 99.4132 15.0477 99.2802 14.7418 98.7561L0.136667 73.7333C-0.167084 73.2129 0.0550056 72.544 0.609708 72.3087L34.5352 57.9134C35.3587 57.564 35.3442 56.3918 34.5122 56.0629L0.647239 42.6758C0.0775622 42.4506 -0.15758 41.7708 0.151211 41.2418L14.7557 16.22C15.0567 15.7043 15.7397 15.5656 16.218 15.9231L45.7049 37.9606C46.4199 38.495 47.4236 37.896 47.2927 37.013L41.9776 1.14659C41.8881 0.542533 42.3561 0 42.9668 0H72.1898C72.7906 0 73.2558 0.525966 73.1823 1.12223L68.853 36.2766C68.7453 37.1508 69.7387 37.7271 70.4442 37.1998L98.9102 15.9232C99.3885 15.5657 100.071 15.7043 100.372 16.2201L114.976 41.2405C115.285 41.77 115.049 42.4503 114.479 42.675L80.4895 56.0624C79.656 56.3907 79.6415 57.5651 80.4666 57.9139L114.517 72.3095C115.072 72.5443 115.295 73.2138 114.991 73.7346L100.385 98.7579C100.08 99.2813 99.3825 99.4148 98.9053 99.0411L70.3343 76.6724C69.6324 76.1229 68.6167 76.6969 68.7253 77.5816L73.1828 113.878C73.256 114.474 72.7909 115 72.1902 115H42.965Z" fill="black"/>
</svg>

<?xml version="1.0" encoding="UTF-8"?>
<svg id="Layer_1" xmlns="http://www.w3.org/2000/svg" version="1.1" viewBox="0 0 116 115">
  <!-- Generator: Adobe Illustrator 30.3.0, SVG Export Plug-In . SVG Version: 2.1.3 Build 182)  -->
  <defs>
    <style>
      .st0 {
        fill: #e6ff06;
      }
    </style>
  </defs>
  <path class="st0" d="M42.97,115c-.61,0-1.08-.54-.99-1.14l5.45-37.14c.13-.89-.9-1.49-1.61-.93l-29.59,23.25c-.48.38-1.18.24-1.48-.28L.14,73.73c-.3-.52-.08-1.19.47-1.42l33.93-14.4c.82-.35.81-1.52-.02-1.85L.65,42.68c-.57-.23-.8-.9-.5-1.43l14.6-25.02c.3-.52.98-.65,1.46-.3l29.49,22.04c.72.53,1.72-.06,1.59-.95L41.98,1.15c-.09-.6.38-1.15.99-1.15h29.22c.6,0,1.07.53.99,1.12l-4.33,35.15c-.11.87.89,1.45,1.59.92l28.47-21.28c.48-.36,1.16-.22,1.46.3l14.6,25.02c.31.53.07,1.21-.5,1.43l-33.99,13.39c-.83.33-.85,1.5-.02,1.85l34.05,14.4c.56.23.78.9.47,1.43l-14.61,25.02c-.31.52-1,.66-1.48.28l-28.57-22.37c-.7-.55-1.72.02-1.61.91l4.46,36.3c.07.6-.39,1.12-.99,1.12h-29.23Z"/>
</svg>
